X:1
T:Cross of Jesus (Stainer), 87.87
T:Cross of Jesus (Stainer), 87.87
T:John Stainer, 1887
T:Public Domain Courtesy of the Cyber Hymnal™
C:John Stainer, 1887
Z:Public Domain
Z:Courtesy of the Cyber Hymnal™
%%score ( 1 2 ) ( 3 4 )
L:1/8
Q:1/4=108
M:4/4
K:Ab
V:1 treble 
V:2 treble 
V:3 bass 
V:4 bass 
V:1
 [Ec]2 [CA]2 [DE]2 [DE]2 | [CE]2 A2 [EA]2 [EG]2 | [EA]2 [Cc]2 (FG) A2 | [Gd]2 [Ac]2 ([Ac]2 [GB]2) | %4
 A2 [Fd]2 [Ed]2 c2 | [FB]2 f2 [Af]2 [_Ge]2 | [Fe]2 d2 (cB) A2 | [EA]2 G2 [CA]4 |] %8
V:2
 x8 | x2 (C=D) x4 | x4 F2 (EF) | x8 | (AG) x3 (A_G) x | x2 (F_G) x4 | x2 (GF) =E2 (C=D) | %7
 x2 (ED) x4 |] %8
V:3
 [A,,A,]2 A,2 [A,B,]2 [G,B,]2 | A,2 (A,B,) [E,C]2 B,2 | [C,A,]2 [A,,A,]2 (A,B,) [C,C]2 | %3
 [B,,D]2 [A,,E]2 [E,E]4 | [F,C]2 ([B,D][A,C]) [G,B,]2 [A,C]2 | [D,D]2 [D,A,]2 [C,C]2 [C,A,]2 | %6
 [D,A,]2 (B,A,) [C,G,]2 (A,B,) | [E,C]2 [E,B,]2 [A,,A,]4 |] %8
V:4
 x2 A,2 x4 | A,2 F,2 x (E,D,) x | x4 D,2 x2 | x8 | x8 | x8 | x2 B,,2 x F,2 x | x8 |] %8

